X:1
T:Title
%%score ( 1 2 ) { 3 | 4 }
L:1/8
Q:1/4=117
M:3/4
K:Eb
V:1 treble nm="Grand Piano, Soprano"
V:2 treble 
V:3 bass nm="Choir Pad, DeSoto, 88.86"
V:4 bass 
V:1
 [EG]2 E2 [EF]2 | [EG]4 [EG]2 | [EA]2 E2 [EF]2 | [EG]6 | [DF]2 [_D=E]2 [=DF]2 | [FA]4 [=EG]2 | %6
w: By~Anonymous,~harmonized~by~C.~B.,~1896 * *||||||
 F2 [CE]2 [EG]2 | [DF]6 | [EB]2 [Ec]2 [EB]2 | B4 z2 | B2 z2 z2 | [FA]6 | [EG]2 [EA]2 [EB]2 | %13
w: |||||||
 [EF]4 [DF]2 | E6- | E2 z2 z2 |] %16
w: |||
V:2
 x6 | x6 | x6 | x6 | x6 | x6 | x6 | x6 | x6 | G2 F2 [EG]2 | =E2- [Ec]2 [EG]2 | x6 | x6 | x6 | x6 | %15
 x6 |] %16
V:3
 B,2 G,2 A,2 | B,4 _D2 | C4 =B,2 | B,6 | A,2 G,2 A,2 | C4 C2 | C2 G,2 C2 | B,6 | B,2 =A,2 B,2 | %9
 B,4 B,2 | C4 C2 | C2 =B,2 _B,2 | B,2 C2 _D2 | C4 A,2 | G,6- | G,2 z2 z2 |] %16
V:4
 E,2 E,2 E,2 | E,4 E,2 | A,,4 A,,2 | E,6 | B,,2 B,,2 B,,2 | F,,4 G,,2 | A,,2 C,2 =A,,2 | B,,6 | %8
 G,2 _G,2 =G,2 | D,4 E,2 | C,4 C,2 | F,2 E,2 D,2 | E,2 C,2 G,,2 | A,,4 B,,2 | E,6- | E,2 z2 z2 |] %16

